packages/dnb-eufemia/assets/icons/phone_medium.svg

<svg width="24" height="24" viewBox="0 0 24 24" fill="none" xmlns="http://www.w3.org/2000/svg">
<path d="M14.977 22.1495C16.0558 22.7789 17.2287 23.1086 18.4852 22.9708C20.1743 22.7856 21.3354 21.8046 22.4792 20.6608C23.1736 19.9656 23.1736 18.8041 22.4792 18.1089L19.2895 14.9212C18.5943 14.2268 17.4328 14.2268 16.7376 14.9212C16.044 15.6156 14.8803 15.6156 14.1866 14.9212L9.08276 9.81629C8.38839 9.12105 8.38839 7.9596 9.08276 7.26435C9.77018 6.57778 9.77696 5.40674 9.08276 4.71339L5.89406 1.52078C5.19882 0.826408 4.03736 0.826408 3.34212 1.52078C2.19838 2.66451 1.21761 3.82576 1.03214 5.51464C0.899751 6.72013 1.17693 8.00831 1.8534 9.02303C5.34866 14.1972 9.80362 18.6531 14.977 22.1495Z" stroke="black" stroke-width="1.5" stroke-linecap="round" stroke-linejoin="round"/>
</svg>

<svg width="24" height="24" viewBox="0 0 24 24" fill="none" xmlns="http://www.w3.org/2000/svg"><path d="M14.977 22.15c1.079.629 2.252.959 3.508.82 1.69-.184 2.85-1.165 3.994-2.31a1.823 1.823 0 0 0 0-2.551l-3.19-3.188a1.823 1.823 0 0 0-2.551 0 1.822 1.822 0 0 1-2.551 0L9.083 9.816a1.824 1.824 0 0 1 0-2.552c.687-.686.694-1.857 0-2.55L5.894 1.52a1.824 1.824 0 0 0-2.552 0c-1.144 1.144-2.124 2.305-2.31 3.994-.132 1.205.145 2.493.821 3.508A48.842 48.842 0 0 0 14.977 22.15Z" stroke="#000" stroke-width="1.5" stroke-linecap="round" stroke-linejoin="round"/></svg>
